resources/icons/16px/backward-ten.svg

<svg width="16" height="16" viewBox="0 0 16 16" fill="none" xmlns="http://www.w3.org/2000/svg">
<path d="M8.00216 16C7.03052 16 6.11971 15.8148 5.26972 15.4443C4.41973 15.0738 3.6794 14.5707 3.04872 13.935C2.41804 13.2993 1.91892 12.553 1.55134 11.6963C1.18378 10.8395 1 9.9257 1 8.95478C1 8.68122 1.09497 8.44873 1.2849 8.2573C1.47483 8.06585 1.70549 7.97013 1.97689 7.97013C2.24829 7.97013 2.47895 8.06585 2.66888 8.2573C2.85881 8.44873 2.95378 8.68122 2.95378 8.95478C2.95378 10.3688 3.44338 11.5683 4.42259 12.5532C5.40179 13.5382 6.59426 14.0307 8 14.0307C9.40574 14.0307 10.5982 13.5372 11.5774 12.5502C12.5566 11.5632 13.0462 10.3612 13.0462 8.94428C13.0462 7.53029 12.5542 6.33081 11.5701 5.34584C10.586 4.36088 9.39252 3.86839 7.98959 3.86839H7.86858L8.3598 4.36354C8.52115 4.52616 8.60049 4.71881 8.59781 4.94149C8.59514 5.16415 8.51581 5.3568 8.3598 5.51944C8.19846 5.68206 8.00253 5.76472 7.772 5.76742C7.54147 5.77011 7.34553 5.69014 7.18418 5.5275L5.25449 3.58245C5.05842 3.38227 4.96038 3.14872 4.96038 2.88183C4.96038 2.61492 5.05842 2.38265 5.25449 2.18502L7.18418 0.239967C7.34553 0.0773335 7.54147 -0.0026339 7.772 6.61403e-05C8.00253 0.00275379 8.19846 0.0889139 8.3598 0.258546C8.51581 0.421167 8.59341 0.615564 8.59261 0.841735C8.59181 1.06791 8.51074 1.26231 8.34939 1.42494L7.879 1.89908H7.98959C8.96174 1.89908 9.87232 2.08432 10.7213 2.45481C11.5703 2.8253 12.3119 3.32839 12.9461 3.96409C13.5802 4.5998 14.0811 5.34449 14.4486 6.19816C14.8162 7.05184 15 7.96742 15 8.94491C15 9.92241 14.8162 10.8395 14.4486 11.6963C14.0811 12.553 13.582 13.2993 12.9513 13.935C12.3206 14.5707 11.581 15.0738 10.7324 15.4443C9.88387 15.8148 8.97378 16 8.00216 16Z" fill="black" />
<path fill-rule="evenodd" clip-rule="evenodd" d="M10 8H9V11H10V8ZM9 7C8.44772 7 8 7.44772 8 8V11C8 11.5523 8.44772 12 9 12H10C10.5523 12 11 11.5523 11 11V8C11 7.44772 10.5523 7 10 7H9Z" fill="black" />
<path d="M5.5 7C5.22386 7 5 7.22386 5 7.5C5 7.77614 5.22386 8 5.5 8H6V11.5C6 11.7761 6.22386 12 6.5 12C6.77614 12 7 11.7761 7 11.5V8C7 7.44772 6.55228 7 6 7H5.5Z" fill="black" />
</svg>

<svg xmlns="http://www.w3.org/2000/svg" viewBox="0 0 16 16">
  <path d="M8.002 16a6.8 6.8 0 0 1-2.732-.556 7.1 7.1 0 0 1-2.221-1.509 7.1 7.1 0 0 1-1.498-2.239A6.9 6.9 0 0 1 1 8.955q0-.41.285-.698a.94.94 0 0 1 .692-.287q.407 0 .692.287t.285.698q0 2.12 1.469 3.598Q5.89 14.031 8 14.031t3.577-1.48q1.47-1.482 1.47-3.607 0-2.12-1.477-3.598-1.476-1.478-3.58-1.478h-.121l.49.496q.242.244.239.577a.82.82 0 0 1-.238.578.8.8 0 0 1-.588.248.78.78 0 0 1-.588-.24l-1.93-1.945a.97.97 0 0 1-.294-.7q0-.401.294-.697L7.184.24A.78.78 0 0 1 7.772 0q.345.004.588.259a.8.8 0 0 1 .233.583q-.001.339-.244.583l-.47.474h.11q1.459 0 2.732.556 1.274.555 2.225 1.51a7.1 7.1 0 0 1 1.503 2.233A6.9 6.9 0 0 1 15 8.945q0 1.466-.551 2.751a7.1 7.1 0 0 1-1.498 2.239 7.1 7.1 0 0 1-2.219 1.51 6.75 6.75 0 0 1-2.73.555"/>
  <path d="M10 8H9v3h1zM9 7a1 1 0 0 0-1 1v3a1 1 0 0 0 1 1h1a1 1 0 0 0 1-1V8a1 1 0 0 0-1-1zM5.5 7a.5.5 0 0 0 0 1H6v3.5a.5.5 0 0 0 1 0V8a1 1 0 0 0-1-1z"/>
</svg>
